assets/icons/qvision/train.svg

<svg xmlns="http://www.w3.org/2000/svg" height="24" viewBox="0 0 24 24" width="24"><path d="M0 0h24v24H0V0z" fill="none"/><path d="M12 2c-4 0-8 .5-8 4v9.5C4 17.43 5.57 19 7.5 19L6 20.5v.5h2.23l2-2H14l2 2h2v-.5L16.5 19c1.93 0 3.5-1.57 3.5-3.5V6c0-3.5-3.58-4-8-4zM7.5 17c-.83 0-1.5-.67-1.5-1.5S6.67 14 7.5 14s1.5.67 1.5 1.5S8.33 17 7.5 17zm3.5-7H6V6h5v4zm2 0V6h5v4h-5zm3.5 7c-.83 0-1.5-.67-1.5-1.5s.67-1.5 1.5-1.5 1.5.67 1.5 1.5-.67 1.5-1.5 1.5z"/></svg>

<svg width="24" height="24" viewBox="0 0 24 24" fill="none" xmlns="http://www.w3.org/2000/svg">
<g clip-path="url(#clip0_147_5662)">
<path d="M12 2C8 2 4 2.5 4 6V15.5C4 17.43 5.57 19 7.5 19L6 20.5V21H8.23L10.23 19H14L16 21H18V20.5L16.5 19C18.43 19 20 17.43 20 15.5V6C20 2.5 16.42 2 12 2ZM7.5 17C6.67 17 6 16.33 6 15.5C6 14.67 6.67 14 7.5 14C8.33 14 9 14.67 9 15.5C9 16.33 8.33 17 7.5 17ZM11 10H6V6H11V10ZM13 10V6H18V10H13ZM16.5 17C15.67 17 15 16.33 15 15.5C15 14.67 15.67 14 16.5 14C17.33 14 18 14.67 18 15.5C18 16.33 17.33 17 16.5 17Z" fill="#323232"/>
</g>
<defs>
<clipPath id="clip0_147_5662">
<rect width="24" height="24" fill="white"/>
</clipPath>
</defs>
</svg>
